src/16/panel/input-touchpad-off.svg

<svg xmlns="http://www.w3.org/2000/svg" width="16" height="16" version="1.1">
 <defs>
  <style id="current-color-scheme" type="text/css">
   .ColorScheme-Text { color:#dfdfdf; } .ColorScheme-Highlight { color:#4285f4; }
  </style>
 </defs>
 <path style="fill:currentColor;opacity:0.3" class="ColorScheme-Text" d="M 1.7773438 1 C 1.3464548 1 1 1.39025 1 1.875 L 1 14.125 C 1 14.60975 1.3464548 15 1.7773438 15 L 14.222656 15 C 14.653545 15 15 14.60975 15 14.125 L 15 1.875 C 15 1.39025 14.653545 1 14.222656 1 L 1.7773438 1 z M 12 2 L 14 2 L 14 3 L 12 3 L 12 2 z M 12 4 L 14 4 L 14 5 L 12 5 L 12 4 z M 12 6 L 14 6 L 14 7 L 12 7 L 12 6 z M 12 8 L 14 8 L 14 9 L 12 9 L 12 8 z M 2 11 L 7 11 L 7 14 L 2 14 L 2 11 z M 9 11 L 14 11 L 14 14 L 9 14 L 9 11 z"/>
</svg>

<svg xmlns="http://www.w3.org/2000/svg" width="16" height="16"><defs><style id="current-color-scheme" type="text/css"></style></defs><path d="M1.777 1C1.347 1 1 1.39 1 1.875v12.25c0 .485.346.875.777.875h12.446c.43 0 .777-.39.777-.875V1.875C15 1.39 14.654 1 14.223 1H1.777zM12 2h2v1h-2V2zm0 2h2v1h-2V4zm0 2h2v1h-2V6zm0 2h2v1h-2V8zM2 11h5v3H2v-3zm7 0h5v3H9v-3z" fill="currentColor" opacity=".3" color="#bebebe"/></svg>
